X:1
T:Etude No.4
T:Etude No.4
T:Giulio Regondi
T:by IMSLP
T:by IMSLP
T:by IMSLP
C:Giulio Regondi
Z:by IMSLP
%%score ( 1 2 3 )
L:1/8
Q:1/4=85
M:9/8
K:E
V:1 treble-8 nm="Classical Guitar" snm="Guit."
V:2 treble-8 
V:3 treble-8 
V:1
"^Allegro cantabile" B3- Bcd efg | gfc d3 c2 B | e3- ede{fg} fef | g6 gf=B | B3- Bcd efg | %5
 gfc d3 c2 B | e3- ede f2 f | f3 e2 z z2 z | f3- f^ef gfd | e3- ede fec | d3 f3- f2 e | %11
 c3- ccd de^e | f3- f^ef b2 ^a | g3- g^^fg f'2 e' | d'3 d'e'd' d'c'f | %15
 b3- b[ABec'][Bdb] [Bca][Bdb][Bca] | g3- g{gab} [Bca][Bcg] gf[AB] | B3- Bcd efg | gfc d3 c2 B | %19
 e3- ede{fg} fef | g6 gf=B | B3- Bcd efg | bac f3 edc | B3- Bde g2 f | %24
 f3 e3- e2 !fermata!z!fine! ||[K:C] e2- e/d/ d2- d/c/ B2- B/A/ | %26
 G2- G/^F/8G/8B/8A/8 G2- G/G/ c2- c/d/ | e3 g2- g/g/ gf-f/e/ | ^c3 d3 z z/ (g/^f/)=f/ | %29
 e2- e/d/ d2- d/c/ B2- B/A/ | G2- G/(^F/8G/8B/8A/8) G2- G/c/ e2- e/(d/4c/4) | %31
 B2- B/B/ b2- b/a/4g/4 ^f2- f/(g/4f/4) | e2 e/(^d/8e/8g/8^f/8) e2 z z2 z | %33
 f2- f/e/ e2- e/d/ a2- a/g/ | g2- g/e/ c'3 c'2- c'/b/ | b2- b/a/ e'2- e'/d'/ (c'/a/)^f/e/c/A/ | %36
 A2- A/B/ G/B/(a/g/)=f/(d/ B/)G/(=F/D/)B,/G,/ | e2- e/d/ d2- d/c/ B2- B/A/ | %38
 G2- G/^F/8G/8B/8A/8 G2- G/G/ c2- c/d/ | e3 g2- g/g/ gf>e | ^c3 d3 G/(d/G/)(g/^f/)=f/ | %41
 e2- e/d/ d2- d/c/ c2- c/B/ | B2- B/A/ e2- e/d/ g2- g/f/ | e2- e/d/ e2- e/d/{ef} e2- e/d/ | %44
 d2- d/e/ c3 G/e/d/{cd}c/B/c/ | _b2- b/a/{gb} agf{efg} fed | d2- d/c/ c2 x z2 c | %47
 f2- f/!-(!e/ !-)!agf{efg} fed | d2- d/e/ c2 _B c{cde}dc | b2- b/a/{ab} agf{efg} fed | %50
 d2- d/c/ c2 x z2 c | f2- f/!-(!c/ !-)!agf{efg} fed | d2- d/e/ cef ^f[_Bcg]^g | a3 agf fg_a | %54
 g3 gf_e ef_g | ^e3 e^d^c cd=e | ^d3 ^d/^c/B/d/(f/e/) d/f/(a/^g/)f/a/ | %57
 (^c'/b/)a/^g/^f/^e/ f/g/(a/g/)f/=e/ ^d/e/(f/e/)d/^c/ | %58
 TB/^A/B/^c/^d/e/ ^f/^g/(b/=a/)f/d/ (c/B/)^A/B/{Bcd}c/B/!D.C.! || %59
V:2
 z [E,B,G][E,B,G] [E,B,G][E,B,G][E,B,G] [E,B,G][E,B,G][E,B,G] | %1
w: |
 z [E,B,A][E,B,A] z [E,B,A][E,B,A] z [E,B,A][E,B,A] | %2
w: |
 z [E,B,G][E,B,G] [E,B,G][E,B,^^F][E,B,G] [A,Ec][A,Ec][A,Ec] | %3
w: |
 z [G,D^B][G,DB] [G,DB][G,DB][G,DB] z [A,Dc][B,DA] | %4
w: |
 z [E,B,G][E,B,G] [E,B,G][E,B,G][E,B,G] [E,B,G][E,B,G][E,B,G] | %5
w: |
 z [E,C^A][E,CA] z [E,B,=A][E,B,A] z [E,DA][E,DA] | %6
w: |
 z [E,EG][E,EG] [CE^A][CEA][CEA] z [B,Dc][B,D=A] | %7
w: |
 z [E,DA=c][E,DAB] [EGB][^^F^A][GB] [=A^c][GB][EG] | z [DFB][DFB] [DFB][DFB][DFB] z [G,D^B][G,DB] | %9
w: ||
 z [A,Gc][A,Gc] [A,Gc][A,Gc][A,Gc] z [F,C^A][F,FA] | z [B,FB][B,FB] z [DFB][DFB] z [EGc][EGc] | %11
w: ||
 z [F,C^A][F,CA] [F,CA]^A,B, [B,F^^G][CFA][=D^GB] | z [^DFB][DFB] [DFB][DFB][DFB] z [D^^FB][DFB] | %13
w: ||
 z [EGB][EG^B] [EGc][EGc][EGc] z [E=Gc][EGc] | z [FBd][FBd] [FBd][FBd][FBd] z [F^Ae][FAe] | %15
w: |VIII. Pos. * * * * *|
 z [B,Fd][B,Fd] [B,Fd] z z z2 z | z [B,B][B,B] [B,B] z x z2 [B,D] | %17
w: ||
 z [E,B,G][E,B,G] [E,B,G][E,B,G][E,B,G] [E,B,G][E,B,G][E,B,G] | %18
w: |
 z [E,B,A][E,B,A] z [E,B,A][E,B,A] z [E,B,A][E,B,A] | %19
w: |
 z [E,B,G][E,B,G] [E,B,G][E,B,^^F][E,B,G] [A,Ec][A,Ec][A,Ec] | %20
w: |
 z [G,D^B][G,DB] [G,DB][G,DB][G,DB] z [A,Dc][B,DA] | %21
w: |
 z [E,B,G][E,B,G] [E,B,G][E,B,G][E,B,G] [E,B,G][E,B,A][^E,=DB] | %22
w: |
 z [F,CA][G,^EB] z [A,Fc][A,Fc] z [^A,E^^F][A,EF] | %23
w: |
 z [B,EG][B,EG] [B,EG][B,^^F][B,G] z [B,Ac][DAB] | %24
w: |
 z [E,B,DB][E,B,DA] z [E,B,EG][E,B,EG] [E,B,EG]2 !fermata!z || %25
w: |
[K:C] C/G/E/A/G/ z/ E,/G/G,/E/C/ z/ ^F,/C/A,/^D/C | z/ C/G,/E/C z/ C/G,/E/C z/ E/C/G/E | %27
w: ||
 A,/E/C/A/E/c/ E,/G/C/c/G F,/A/D/d/A | G,/E/^A,/G/E/A,/ G,/D/B,/G/D/B/ G/(d/B/)g/^f/=f/ | %29
w: ||
 C/G/E/A/G/ z/ E,/G/G,/E/C/ z/ ^F,/C/A,/^D/C | z/ C/G,/E/C z/ C/G,/E/C A,/^F/C/A/F/ z/ | %31
w: ||
 B,/E/B,/G/E z/ G/B,/B/E/ z/ z/ A/^D/B/A/ z/ | E,/F/E/B/G/ z/ e/B/G/(e/B/)G/ E/B/G/E/B,/G/ | %33
w: ||
 G,/G/D/B/G B,/G/D/B/G F,/G/D/B/G | E,/G/C/c/G C/G/E/c/G/e/ A,/c/A/e/c | %35
w: ||
 D/c/^F/d/c D/^f/c/a/f/d'/ x3 | G,/D/C/^F/D x6 | C/G/E/c/G E,/G/G,/E/C ^F,/C/A,/^D/C | %38
w: |||
 z/ C/G,/E/C z/ C/G,/E/C z/ E/C/G/E | A,/E/C/A/E/c/ E,/G/C/c/G F,/A/D/d/A | %40
w: ||
 G,/E/^A,/G/E/A,/ G,/D/B,/G/D/B/ x3 | C/G/E/c/G E,/G/G,/E/C E,/C/^G,/E/C | %42
w: ||
 F,/C/A,/F/C z/ ^F/D/A/F _A,/F/D/c/F/ z/ | G,/E/C/G/E z/ ^F/D/c/F G,/=F/B,/G/F | %44
w: ||
 G,/E/C/G/E z/ E/C/G/E/c/ x3 | C/c/G/e/c z [_Bc][Ac] z [GB][FB] | %46
w: ||
 z/ E/C/G/E z [E,G][F,A] [G,B][F,A][E,G] | F,/F/C/A/F/ x/ z [DF=B][DFB] z [=B,FG][B,FG] | %48
w: ||
 C/G/F/(B/G) z [CEG][CFA] [CEG] z z | C/c/G/e/c z [_Bc][Ac] z [GB][FB] | %50
w: ||
 z/ E/C/G/E z [E,G][F,A] [G,_B][F,A][E,G] | F,/F/C/A/F z [DF=B][DFB] z [=B,FG][B,FG] | %52
w: ||
 C/G/F/B/G z [CGc]D ^DEE | F/A/c/A/f/c/ a [Ac][Ac] [_B,_Ad]GF | %54
w: |V.~Pos. * * * * * * * * * * *|
 _E/G/_B/G/_e/B/ z [GB][GB] [_A,_Gc]FE | ^C/^E/^G/E/^c/G/ z [EG][EG] [^F,=E^A]^DC | %56
w: III~Pos. * * * * * * * IV~Pos. * *||
 B,/^D/^F/D/B/F/ x6 | x9 | x9 || %59
w: |||
V:3
 x9 | x9 | x9 | x9 | x9 | x9 | x9 | x3 E,2 x4 | x9 | x9 | x9 | x9 | x9 | x9 | x9 | x9 | %16
 x !stemless!B !stemless!B !stemless!B x5 | x9 | x9 | x9 | x9 | x9 | x9 | x9 | x9 ||[K:C] x9 | x9 | %27
 x9 | x9 | x9 | x9 | x9 | E,4 x5 | x9 | x9 | x9 | x9 | x9 | x9 | x9 | x9 | x9 | x9 | x9 | x9 | x9 | %46
 x9 | x9 | x9 | x9 | x9 | x9 | x9 | x9 | x9 | x9 | x9 | x9 | x9 || %59

